assets/img/braze_icons/log-out-03-alt.svg

<svg fill="none" height="24" viewBox="0 0 24 24" width="24" xmlns="http://www.w3.org/2000/svg"><g fill="#801ed7"><path d="m6.2341 2.38855c.49554.01966 1.1006.0869 1.83714.16875l1.10053.12227c.25196.02795.43928.04873.60828.08234 1.74645.34723 3.05305 1.80708 3.20535 3.58117.0147.17168.0147.36014.0146.61364v.44328c0 .56005 0 .84008-.109 1.05399-.0959.18816-.2488.34114-.437.43702-.2139.10899-.4939.10899-1.054.10899h-2.4c-1.65685 0-3 1.3431-3 3s1.34315 3 3 3h2.4c.5601 0 .8401 0 1.054.109.1882.0959.3411.2488.437.437.109.2139.109.4939.109 1.054v.4432c.0001.2535.0001.442-.0146.6137-.1523 1.7741-1.4589 3.2339-3.20535 3.5812-.16898.0336-.35632.0543-.60821.0823l-1.06253.118-.00197.0003-.0362.004c-.7365.0818-1.34153.149-1.83706.1687-.51134.0203-.98862-.0049-1.45319-.1535-1.08364-.3468-1.96833-1.1386-2.43265-2.1773-.19906-.4454-.27677-.917-.31307-1.4274-.03519-.4947-.03518-1.1035-.03517-1.8445v-8.01739c-.00001-.74106-.00002-1.34986.03517-1.84454.0363-.51046.11401-.98204.31307-1.42736.46432-1.03872 1.34901-1.83056 2.43265-2.17733.46458-.14866.94186-.17381 1.45321-.15353z"/><path d="m15.2929 6.29289c.3905-.39052 1.0237-.39052 1.4142 0l5 5.00001c.3905.3905.3905 1.0237 0 1.4142l-5 5c-.3905.3905-1.0237.3905-1.4142 0s-.3905-1.0237 0-1.4142l3.2929-3.2929h-9.5858c-.55228 0-1-.4477-1-1s.44772-1 1-1h9.5858l-3.2929-3.29289c-.3905-.39053-.3905-1.02369 0-1.41422z"/></g></svg>

<svg width="24" height="24" viewBox="0 0 24 24" fill="none" xmlns="http://www.w3.org/2000/svg">
<path d="M6.2341 2.38855C6.72964 2.40821 7.3347 2.47545 8.07124 2.5573L9.17177 2.67957C9.42373 2.70752 9.61105 2.7283 9.78005 2.76191C11.5265 3.10914 12.8331 4.56899 12.9854 6.34308C13.0001 6.51476 13.0001 6.70322 13 6.95672V7.4C13 7.96005 13 8.24008 12.891 8.45399C12.7951 8.64215 12.6422 8.79513 12.454 8.89101C12.2401 9 11.9601 9 11.4 9H9C7.34315 9 6 10.3431 6 12C6 13.6569 7.34315 15 9 15H11.4C11.9601 15 12.2401 15 12.454 15.109C12.6422 15.2049 12.7951 15.3578 12.891 15.546C13 15.7599 13 16.0399 13 16.6V17.0432C13.0001 17.2967 13.0001 17.4852 12.9854 17.6569C12.8331 19.431 11.5265 20.8908 9.78005 21.2381C9.61107 21.2717 9.42373 21.2924 9.17184 21.3204L8.10931 21.4384L8.10734 21.4387L8.07114 21.4427C7.33464 21.5245 6.72961 21.5917 6.23408 21.6114C5.72274 21.6317 5.24546 21.6065 4.78089 21.4579C3.69725 21.1111 2.81256 20.3193 2.34824 19.2806C2.14918 18.8352 2.07147 18.3636 2.03517 17.8532C1.99998 17.3585 1.99999 16.7497 2 16.0087V7.99131C1.99999 7.25025 1.99998 6.64145 2.03517 6.14677C2.07147 5.63631 2.14918 5.16473 2.34824 4.71941C2.81256 3.68069 3.69725 2.88885 4.78089 2.54208C5.24547 2.39342 5.72275 2.36827 6.2341 2.38855Z" fill="#801ED7"/>
<path d="M15.2929 6.29289C15.6834 5.90237 16.3166 5.90237 16.7071 6.29289L21.7071 11.2929C22.0976 11.6834 22.0976 12.3166 21.7071 12.7071L16.7071 17.7071C16.3166 18.0976 15.6834 18.0976 15.2929 17.7071C14.9024 17.3166 14.9024 16.6834 15.2929 16.2929L18.5858 13H9C8.44772 13 8 12.5523 8 12C8 11.4477 8.44772 11 9 11H18.5858L15.2929 7.70711C14.9024 7.31658 14.9024 6.68342 15.2929 6.29289Z" fill="#801ED7"/>
</svg>
